X:059
%%topmargin 3cm
T:Rialto
B:The Nelson Music Collection
N:Newton F. Tolman & K. Dep. Gilbert
Z:Transcribed by Ralph Palmer
R:Hornpipe
L:1/16
M:C|
K:Bb
d e>=e | g>fd>B F>Bd>b | a>ge>c =E>Gc>B | A>ca>g A>cg>f | =e>gf>d B>d_e>=e |
g>fd>B F>Bd>b | a>ge>c =E>Gc>G | A>ca>g A>cg>f | B4 b4 B2 z ::
=B c>_B | A>cf>a c>AB>A | A>c=e>g b>ag>f | ((3=eba) ((3gfe) d>c=B>c | d>cA>F C>=Bc>_B |
A>cf>a c>AB>A | B>c=e>g b>ag>f | ((3=ed'c') ((3bag) ((3fed) ((3cBG) | ((3FAc) ((3fac') d'2 z :|]
